src/static/logos/ebanx.svg

<?xml version="1.0" encoding="UTF-8"?>
<svg width="512px" height="97px" viewBox="0 0 512 97" version="1.1" xmlns="http://www.w3.org/2000/svg" xmlns:xlink="http://www.w3.org/1999/xlink" preserveAspectRatio="xMidYMid">
    <g>
		<path d="M1.81220096,0.621212416 L45.4543299,36.2475016 L77.2517432,1.87194266 C77.6929492,1.39496499 77.3546534,0.62121216 76.7049073,0.62121216 L1.81220096,0.62121216 L1.81220096,0.621212416 Z" fill="#2397D4"></path>
		<path d="M1.81220096,96.792119 L45.4543299,61.1658299 L77.251742,95.5413865 C77.692948,96.018369 77.3546522,96.792119 76.704906,96.792119 L1.81220096,96.792119 Z" fill="#2397D4"></path>
		<path d="M2.29132595,0.80634368 L60.2484598,48.0745029 C60.6486943,48.4009239 60.6486943,49.0124132 60.2484598,49.3388339 L2.29132595,96.6069921 C1.75847706,97.0415626 0.96,96.6624218 0.96,95.9748242 L0.96,1.43850803 C0.96,0.750915072 1.75847706,0.371767552 2.29132595,0.80634368 Z" fill="#2F4A75"></path>
		<path d="M242.012305,68.8713526 C242.012305,85.3459474 228.695273,96.7411036 212.083438,96.7411036 L172.088359,96.7411036 C171.657891,96.7411036 171.308926,96.3921485 171.308926,95.9616896 L171.308926,1.4033559 C171.308926,0.980781312 171.651504,0.63821696 172.074063,0.63821696 L209.199766,0.63821696 C225.400469,0.63821696 238.443027,11.6216691 238.443027,27.6845622 C238.443027,35.9215713 235.01041,42.3745254 229.382031,46.9050235 C237.070664,51.2982909 242.012305,58.8491259 242.012305,68.8713526 Z M190.254336,18.9968481 L190.254336,38.6918725 C190.254336,39.1334546 190.612324,39.4914258 191.053906,39.4914258 L209.199766,39.4914258 C215.446114,39.4914258 220.00209,34.4202808 219.452696,27.8547924 C218.997774,22.418208 214.230957,18.3485107 208.775371,18.3485107 L190.902676,18.348512 C190.544609,18.348512 190.254336,18.638783 190.254336,18.9968481 Z M223.175234,66.7406543 C222.805547,60.8522852 217.689785,56.3777344 211.789824,56.3777344 L190.254336,56.3777295 L190.254336,79.0308106 L212.083438,79.0308106 C218.825098,79.0308106 223.617598,73.7862646 223.175234,66.7406543 Z M309.867793,79.4425196 L272.594434,79.4425196 C272.286621,79.4425196 272.01332,79.6394972 271.915976,79.9315236 L266.475781,96.2520998 C266.378437,96.5441311 266.105156,96.7411039 265.797324,96.7411039 L246.865215,96.7411039 C246.372578,96.7411039 246.027461,96.2546683 246.190195,95.7896878 L279.325547,1.11712922 C279.425937,0.830286848 279.696641,0.638220544 280.000547,0.638220544 L302.462363,0.638220544 C302.765937,0.638220544 303.036426,0.829869824 303.13707,1.11626752 L336.408164,95.7888358 C336.57164,96.2539725 336.226484,96.7411113 335.733476,96.7411113 L316.664902,96.7411113 C316.35707,96.7411113 316.083789,96.5441388 315.986445,96.2521073 L310.54625,79.931531 C310.448906,79.639497 310.175625,79.4425196 309.867793,79.4425196 Z M304.162812,60.7894922 L291.977988,24.4871583 C291.759766,23.8370412 290.840234,23.8370289 290.622012,24.4871411 L278.436113,60.7894728 C278.280566,61.252842 278.625312,61.7322217 279.114082,61.7322217 L303.484824,61.7322217 C303.973594,61.7322217 304.31834,61.2528563 304.162812,60.7894922 Z M420.627734,1.41182029 L420.627734,95.9675039 C420.627734,96.3947597 420.281367,96.7411075 419.85414,96.7411075 L406.615312,96.7411075 C406.363047,96.7411075 406.126601,96.6181094 405.981797,96.4115372 L365.026055,37.9812636 L365.026055,95.9675039 C365.026055,96.3947597 364.679687,96.7411075 364.252422,96.7411075 L346.854219,96.7411075 C346.426992,96.7411075 346.080625,96.3947597 346.080625,95.9675039 L346.080625,1.41182029 C346.080625,0.98457088 346.426992,0.63821696 346.854219,0.63821696 L360.093594,0.63821696 C360.345586,0.63821696 360.581758,0.760925952 360.726602,0.967094784 L401.682344,59.2608302 L401.682344,1.41182029 C401.682344,0.98457088 402.028672,0.63821696 402.455938,0.63821696 L419.854141,0.63821696 C420.281367,0.63821696 420.627734,0.98457088 420.627734,1.41182029 Z M489.862734,96.349121 L472.115859,66.5964649 C471.804102,66.0738184 471.047149,66.0738086 470.735391,66.5964454 L452.987344,96.349131 C452.842344,96.5922168 452.580156,96.7411036 452.29711,96.7411036 L432.751484,96.7411036 C432.127773,96.7411036 431.741758,96.0616015 432.061133,95.525879 L460.471484,47.865215 C460.622539,47.6118264 460.622617,47.2960499 460.471758,47.0425733 L433.570078,1.85304294 C433.251172,1.31730995 433.637188,0.63821696 434.260664,0.63821696 L453.806797,0.63821696 C454.090117,0.63821696 454.3525,0.78738304 454.497383,1.03082982 L470.735,28.308972 C471.046601,28.8324657 471.804609,28.8324534 472.116211,28.3089526 L488.352695,1.03084954 C488.497617,0.787391232 488.76,0.638216192 489.04332,0.638216192 L508.587304,0.638216192 C509.211211,0.638216192 509.597226,1.31821517 509.277343,1.85393357 L482.379492,46.904663 C482.22793,47.1584717 482.227969,47.4749804 482.379531,47.7287695 L510.925078,95.5253028 C511.245,96.0610156 510.859023,96.7411036 510.235039,96.7411036 L490.553008,96.7411036 C490.269922,96.7411036 490.007734,96.5922071 489.862734,96.349121 Z M121.880283,78.5695606 C119.406963,78.2485888 117.48957,76.1571581 117.48957,73.596382 L117.48957,57.8062648 C117.48957,57.3966067 117.821709,57.0644728 118.231289,57.0644728 L153.129541,57.0644728 C153.539268,57.0644728 153.871397,56.7323389 153.871397,56.3226076 L153.871397,39.9587965 C153.871397,39.5490675 153.539268,39.2169336 153.129541,39.2169336 L118.231289,39.2169336 C117.821709,39.2169336 117.48957,38.8847974 117.48957,38.4751416 L117.48957,19.5026196 C117.48957,19.0928906 117.821709,18.7607557 118.231289,18.7607557 L156.562129,18.7607557 C156.971855,18.7607557 157.303994,18.4286208 157.303994,18.0189637 L157.303994,1.38001715 C157.303994,0.970359808 156.971855,0.638224896 156.562129,0.638224896 L99.2859668,0.638224896 C98.8762304,0.638224896 98.5442481,0.970359808 98.5442481,1.38001715 L98.5442481,59.2749829 L98.5442481,78.8159009 C98.5442481,88.7344801 106.584815,96.7751245 116.50332,96.7751245 L157.98958,96.7751245 L157.98958,78.569558 L121.880283,78.569558 L121.880283,78.5695606 Z" fill="#2F4A75"></path>
    </g>
</svg>

<svg width="512" height="97" xmlns="http://www.w3.org/2000/svg" preserveAspectRatio="xMidYMid"><path d="M1.812.621l43.642 35.627L77.252 1.872a.745.745 0 00-.547-1.25H1.812zm0 96.171l43.642-35.626L77.252 95.54a.745.745 0 01-.547 1.251H1.812z" fill="#2397D4"/><path d="M2.291.806l57.957 47.269c.4.326.4.937 0 1.264L2.291 96.607a.816.816 0 01-1.331-.632V1.439A.816.816 0 012.291.806zm239.721 68.065c0 16.475-13.317 27.87-29.929 27.87h-39.995a.78.78 0 01-.78-.78V1.404c0-.422.344-.765.766-.765H209.2c16.2 0 29.243 10.984 29.243 27.047 0 8.237-3.433 14.69-9.061 19.22 7.689 4.393 12.63 11.944 12.63 21.966zm-51.758-49.874v19.695a.8.8 0 00.8.8H209.2c6.246 0 10.802-5.072 10.253-11.637-.455-5.437-5.222-9.506-10.678-9.506h-17.872a.648.648 0 00-.649.648zm32.921 47.744c-.37-5.889-5.485-10.363-11.385-10.363h-21.536V79.03h21.83c6.741 0 11.534-5.245 11.091-12.29zm86.693 12.702h-37.274a.715.715 0 00-.678.489l-5.44 16.32a.715.715 0 01-.679.49h-18.932a.715.715 0 01-.675-.952l33.136-94.673A.715.715 0 01280 .638h22.461c.304 0 .574.192.675.478l33.271 94.673a.715.715 0 01-.675.952h-19.068a.715.715 0 01-.679-.489l-5.44-16.32a.715.715 0 00-.678-.49zm-5.705-18.654l-12.185-36.302c-.218-.65-1.138-.65-1.356 0L278.436 60.79a.715.715 0 00.678.943h24.37c.49 0 .834-.48.679-.943zM420.628 1.412v94.556a.774.774 0 01-.774.773h-13.239a.774.774 0 01-.633-.33l-40.956-58.43v57.987a.774.774 0 01-.774.773h-17.398a.774.774 0 01-.773-.773V1.412c0-.427.346-.774.773-.774h13.24c.252 0 .488.123.633.33l40.955 58.293V1.41c0-.426.347-.773.774-.773h17.398c.427 0 .774.347.774.774zm69.235 94.937l-17.747-29.753a.804.804 0 00-1.38 0l-17.75 29.754a.804.804 0 01-.69.392H432.75a.804.804 0 01-.69-1.215l28.41-47.66a.804.804 0 000-.823l-26.9-45.19a.804.804 0 01.69-1.215h19.546c.283 0 .546.15.69.393l16.238 27.278a.804.804 0 001.381 0l16.237-27.278a.804.804 0 01.69-.393h19.544c.624 0 1.01.68.69 1.216l-26.898 45.05a.804.804 0 000 .825l28.546 47.796a.804.804 0 01-.69 1.216h-19.682a.804.804 0 01-.69-.392zM121.88 78.57c-2.473-.32-4.39-2.412-4.39-4.973v-15.79c0-.41.332-.742.741-.742h34.899a.74.74 0 00.741-.741V39.959a.742.742 0 00-.741-.742h-34.9a.742.742 0 01-.741-.742V19.503c0-.41.332-.742.741-.742h38.331c.41 0 .742-.332.742-.742V1.38a.742.742 0 00-.742-.742H99.286a.742.742 0 00-.742.742v77.435c0 9.92 8.04 17.96 17.96 17.96h41.486V78.57h-36.11z" fill="#2F4A75"/></svg>
